X:1
T:Lighten Another’s Care
T:J. Owen Long, 1916
T:Lighten Another’s Care
T:Public Domain
T:Public Domain
C:J. Owen Long, 1916
Z:Public Domain
%%score ( 1 2 ) 3
L:1/8
M:6/8
K:Ab
V:1 treble 
V:2 treble 
V:3 bass 
V:1
 [CE][CE][CE] [DE][DE][DE] | E2 E [DF]2 [FB] | [EA][EG][EA] [EB]2 [Ed] | [Ec]3- [Ec]2 z | %4
w: 1.~Je- sus com- mands you to|go to- day And|an- o- ther’s care; Point|them *|
w: 2.~Je- sus will give you the|vic- tor’s power, So|an- o- ther’s care; Give|you *|
w: 3.~Draw from the fount- ain of|bound- less grace, And|an- o- ther’s care; Walk|in *|
 [CE][CE][CE] [DE][DE][DE] | E2 E [DF]2 [FB] | [EA][EG][EA] [Ec]2 [DB] | [CA]3- [CA]2 z || %8
w: to Him as the Light, the|Way, He’ll al- ways|den share. Light- en a|care, *|
w: a bless- ing each com- ing|hour And help you|to bear. * * *||
w: the light of the Sav- ior’s|face, In- her- it|sion fair. * * *||
"^Refrain" (EEE E)[=D=B][Ec] | (CCD [CA]2) z | (DDD D)[DG][DA] | (CCD [CE]2) z | %12
w: Tell * * * Him in|Je- * * *|sends * * * hap- pi-|ev- * * *|
w: ||||
w: ||||
 [CE][CE][CE] [DE][DE][DE] | E2 E [DF]2 [FB] | [EA][EG][EA] [Ec]2 [DB] | [CA]3- [CA]2 z |] %16
w: where, And light- ens His child-|ren’s care. * *|||
w: ||||
w: ||||
V:2
 x6 | E2 E x3 | x6 | x6 | x6 | E2 E x3 | x6 | x6 || c4 x2 | A3- x3 | F4 x2 | E3- x3 | x6 | %13
w: |light- en||||the bur-|||prayer;|sus|ness|ery-||
w: |light- en||||the cross||||||||
w: |light- en||||a man-||||||||
 E2 E x3 | x6 | x6 |] %16
w: |||
w: |||
w: |||
V:3
 [A,,A,][A,,A,][A,,A,] [B,,G,][B,,G,][B,,G,] | [C,A,]2 [C,A,] [D,A,]2 [D,D] | %2
w: ~ ~ ~ ~ ~ ~|~ ~ ~ ~|
 [E,C][E,B,][E,C] [E,G,]2 [E,B,] | [A,,A,]3- [A,,A,]2 z | %4
w: ~ ~ ~ ~ ~|~ *|
 [A,,A,][A,,A,][A,,A,] [B,,G,][B,,G,][B,,G,] | [C,A,]2 [C,A,] [D,A,]2 [D,D] | %6
w: ~ ~ ~ ~ ~ ~|~ ~ ~ ~|
 [E,C][E,B,][E,C] [E,A,]2 [E,G,] | [A,,A,]3- [A,,A,]2 z || %8
w: ~ ~ ~ ~ ~|~ *|
 [A,,A,][A,,A,][A,,A,] [A,,A,][A,,A,][A,,A,] | [A,,A,][A,,A,][A,,F,] [A,,E,]2 z | %10
w: Je- sus com- mands you to|light- en a care,|
 [D,A,][D,A,][D,A,] [D,A,][D,G,][D,F,] | [A,,A,][A,,A,][A,,F,] [A,,E,]2 z | %12
w: Je- sus com- mands you to|tell Him in prayer;|
 [A,,A,][A,,A,][A,,A,] [B,,G,][B,,G,][B,,G,] | [C,A,]2 [C,A,] [D,A,]2 [D,D] | %14
w: ||
 [E,C][E,B,][E,C] [E,A,]2 [E,G,] | [A,,A,]3- [A,,A,]2 z |] %16
w: ||

